X:1
T:Title
%%score 1 2
L:1/8
Q:1/4=107
M:4/4
K:Bb
V:1 treble nm="Grand Piano, Soprano"
V:2 bass nm="Choir Pad, In the Pleasant Land of Heaven"
V:1
 [B,D]>[CE] [DF]2 [DB]2 [DB]2 | [Fd]2 [Fc]4 [DB]2 | [FB]>[FA] [EG]2 [EG]2 [GB]2- | [GB][EB] [DF]6 | %4
w: By~James~Ramsey~Murray * * * *||||
 [B,D]>[CE] [DF]2 [DB]2 [DB]2 | [Fd]2 [Fd]4 [DB]2 | [Gc]>[Gd] [Ge]2 [EG]2 [EA]2 | [EF]2 [DB]6 | %8
w: ||||
 [CA]>[DB] [Ec]2 [Ec]2 [Fd]2- | [Fd][Ec] [Ec]2 [DB]4 | [FB]>[FA] [EG]2 [EB]2 [=Ec]2- | %11
w: |||
 [Ec][=EB] [Fc]6 | [Fd]>[Ec] [DB]2 [DB]2 [EG]2 | [EG]2 [DF]4 [B,D]2 | %14
w: |||
 [B,D]>[CE] [DF]2 [DB]2 [Ec]2- | [Ec][DB] [DB]6 | [DB]>[Ec] [Fd]2 [DF]2 [DF]2 | %17
w: |||
 [FB]>[FA] [EA]2 [EG]2 [EG]2 | [EA]>[EG] [EG]2 [DF]2 [FB]2 | F2 [Fc]6 | %20
w: |||
 [Fd]>[Ec] [DB]2 [DF]2 [DF]2 | [Ge]>[Fd] [Ec]2 [EG]2 [EG]2 | [EA]>[EG] [DF]2 [DB]2 [Ec]2- | %23
w: |||
 [Ec][DB] [DB]6- | [DB]2 z2 z4 |] %25
w: ||
V:2
 [B,,F,]>[B,,B,] [B,,B,]2 [B,,F,]2 [B,,F,]2 | [B,,B,]2 [B,,B,]4 [B,,B,]2 | %2
 [D,B,]>[D,B,] [E,B,]2 [E,B,]2 [E,B,]2- | [E,B,][G,B,] B,6 | %4
 [B,,F,]>[B,,B,] [B,,B,]2 [B,,F,]2 [B,,F,]2 | [B,,B,]2 [B,,B,]4 [B,,B,]2 | %6
 [E,B,]>[D,=B,] [C,C]2 [C,C]2 [F,C]2 | [F,C]2 [B,,B,]6 | F,>F, [F,A,]2 [F,A,]2 [F,A,]2- | %9
 [F,A,][F,A,] [B,,B,]2 [B,,B,]4 | [D,B,]>[D,B,] [E,B,]2 [E,G,]2 [C,G,]2- | [C,G,][C,G,] [F,A,]6 | %12
 [F,A,]>[F,A,] [B,,B,]2 [B,,B,]2 [B,,B,]2 | [B,,B,]2 [B,,B,]4 [B,,F,]2 | %14
 [B,,F,]>[B,,B,] [B,,B,]2 [G,B,]2 [F,A,]2- | [F,A,][B,,B,] [B,,B,]6 | B,>B, B,2 B,2 B,2 | %17
 [D,B,]>[D,B,] [E,B,]2 [E,B,]2 [E,B,]2 | [E,B,]>[E,B,] [B,,B,]2 [B,,B,]2 [D,B,]2 | %19
 [D,B,]2 [F,A,]6 | [F,A,]>[F,A,] [B,,B,]2 [B,,B,]2 [B,,B,]2 | %21
 [B,,B,]>[B,,B,] [E,G,]2 [E,C]2 [E,C]2 | [E,C]>[E,C] [F,B,]2 [F,B,]2 [F,A,]2- | %23
 [F,A,][B,,B,] [B,,B,]6- | [B,,B,]2 z2 z4 |] %25

